packages/foundations/assets/icons/functional/images/social/face_delighted_20.svg

<svg xmlns="http://www.w3.org/2000/svg" width="20" height="20" fill="none"><g clip-path="url(#a)"><path fill="#1A1C1F" fill-rule="evenodd" d="M15 10c0 2.757-2.243 5-5 5s-5-2.243-5-5 2.243-5 5-5 5 2.243 5 5M3 10a7 7 0 1 0 14 0 7 7 0 0 0-14 0m9.057.854a.815.815 0 0 0-.904-.019c-.017.011-.431.271-1.171.271s-1.154-.261-1.159-.264a.8.8 0 0 0-1.229.867c.17.627.892 1.812 2.402 1.812 1.522 0 2.221-1.196 2.377-1.829a.8.8 0 0 0-.316-.838M8.039 9.415a.45.45 0 0 1 .397-.107 1 1 0 0 0 .46-1.947c-1.319-.31-2.189.556-2.285.655a.98.98 0 0 0 .024 1.376.99.99 0 0 0 .708.293c.25 0 .5-.09.696-.27m5.351-1.399c-.096-.101-.965-.968-2.285-.655a1 1 0 1 0 .46 1.947.46.46 0 0 1 .395.105.999.999 0 0 0 1.43-1.397" clip-rule="evenodd"/></g><defs><clipPath id="a"><path fill="#fff" d="M0 0h20v20H0z"/></clipPath></defs></svg>

<svg width="20" height="20" viewBox="0 0 20 20" fill="none" xmlns="http://www.w3.org/2000/svg">
<g clip-path="url(#clip0_187_347)">
<path fill-rule="evenodd" clip-rule="evenodd" d="M15 10C15 12.757 12.757 15 10 15C7.243 15 5 12.757 5 10C5 7.243 7.243 5 10 5C12.757 5 15 7.243 15 10ZM3 10C3 13.866 6.134 17 10 17C13.866 17 17 13.866 17 10C17 6.134 13.866 3 10 3C6.134 3 3 6.134 3 10ZM12.057 10.854C11.79 10.665 11.429 10.659 11.153 10.835C11.136 10.846 10.722 11.106 9.982 11.106C9.242 11.106 8.828 10.845 8.823 10.842C8.546 10.651 8.179 10.651 7.905 10.846C7.631 11.039 7.506 11.385 7.594 11.709C7.764 12.336 8.486 13.521 9.996 13.521C11.518 13.521 12.217 12.325 12.373 11.692C12.453 11.375 12.323 11.046 12.057 10.854ZM8.039 9.415C8.068 9.389 8.225 9.257 8.436 9.308C8.975 9.43 9.512 9.102 9.639 8.564C9.766 8.027 9.433 7.488 8.896 7.361C7.577 7.051 6.707 7.917 6.611 8.016C6.239 8.406 6.257 9.007 6.635 9.392C6.827 9.588 7.084 9.685 7.343 9.685C7.593 9.685 7.843 9.595 8.039 9.415ZM13.39 8.016C13.294 7.915 12.425 7.048 11.105 7.361C10.567 7.488 10.235 8.027 10.362 8.564C10.489 9.102 11.028 9.43 11.565 9.308C11.771 9.26 11.924 9.382 11.96 9.413C12.155 9.607 12.41 9.705 12.667 9.705C12.915 9.705 13.163 9.613 13.357 9.429C13.756 9.048 13.771 8.415 13.39 8.016Z" fill="#1A1C1F"/>
</g>
<defs>
<clipPath id="clip0_187_347">
<rect width="20" height="20" fill="white"/>
</clipPath>
</defs>
</svg>
